Numix/32/mimetypes/virtualbox-ovf.svg

<?xml version="1.0" encoding="UTF-8" standalone="no"?>
<svg
   xmlns:dc="http://purl.org/dc/elements/1.1/"
   xmlns:cc="http://creativecommons.org/ns#"
   xmlns:rdf="http://www.w3.org/1999/02/22-rdf-syntax-ns#"
   xmlns:svg="http://www.w3.org/2000/svg"
   xmlns="http://www.w3.org/2000/svg"
   xmlns:sodipodi="http://sodipodi.sourceforge.net/DTD/sodipodi-0.dtd"
   xmlns:inkscape="http://www.inkscape.org/namespaces/inkscape"
   width="32"
   height="32"
   viewBox="0 0 32 32"
   id="svg2"
   version="1.1"
   inkscape:version="0.91 r13725"
   sodipodi:docname="application-vbox-4_32-1P-.svg">
  <metadata
     id="metadata26">
    <rdf:RDF>
      <cc:Work
         rdf:about="">
        <dc:format>image/svg+xml</dc:format>
        <dc:type
           rdf:resource="http://purl.org/dc/dcmitype/StillImage" />
        <dc:title></dc:title>
      </cc:Work>
    </rdf:RDF>
  </metadata>
  <defs
     id="defs24" />
  <sodipodi:namedview
     pagecolor="#ffffff"
     bordercolor="#666666"
     borderopacity="1"
     objecttolerance="10"
     gridtolerance="10"
     guidetolerance="10"
     inkscape:pageopacity="0"
     inkscape:pageshadow="2"
     inkscape:window-width="1920"
     inkscape:window-height="1013"
     id="namedview22"
     showgrid="false"
     inkscape:zoom="2.8284271"
     inkscape:cx="49.398534"
     inkscape:cy="10.89574"
     inkscape:window-x="0"
     inkscape:window-y="27"
     inkscape:window-maximized="1"
     inkscape:current-layer="svg2">
    <inkscape:grid
       type="xygrid"
       id="grid3100" />
  </sodipodi:namedview>
  <path
     style="fill:#a60ed7;fill-opacity:1"
     d="M 5.335888,2.97e-4 C 4.648414,3.12e-4 4,0.676788 4,1.394031 L 4,30.606268 C 4,31.282757 4.687474,32 5.335888,32 l 21.327331,0 c 0.648414,0 1.335888,-0.717243 1.335888,-1.393732 L 28,8.9999995 19,0 z"
     id="path4-1"
     inkscape:connector-curvature="0"
     sodipodi:nodetypes="ssssssccs" />
  <path
     style="fill:#000000;fill-opacity:0.19599998"
     d="m 20.999999,8.9999995 7,7.0000005 0,-7.0000005 z"
     id="path6-4"
     inkscape:connector-curvature="0"
     sodipodi:nodetypes="cccc" />
  <path
     style="fill:#ffffff;fill-opacity:0.39200003"
     d="m 19.000305,2.97e-4 8.991594,8.9997025 -7.613262,0 c -0.672951,0 -1.378332,-0.7134896 -1.378332,-1.3864402 z"
     id="path8-6"
     inkscape:connector-curvature="0"
     sodipodi:nodetypes="ccssc" />
  <path
     style="fill:#000000;fill-opacity:0.19599998"
     d="m 4,24 0,6.667969 C 4,31.316407 4.6875,32 5.3320311,32 L 26.667969,32 C 27.3125,32 28,31.316407 28,30.667969 L 28,24 z"
     id="path3011"
     inkscape:connector-curvature="0" />
  <path
     style="fill:#ffffff;fill-opacity:1;fill-rule:nonzero;stroke:none"
     d="m 15.5,9.158 -2,8.579364 L 12.27595,14 10,14 l 0,1 1.644,0 1.956818,5.993934 0.228656,0.0061 1.979976,-8.588287 1.578291,5.193171 c 0.421804,-1.60731 0.84982,-3.215011 1.274023,-4.822322 0.93781,2.165269 -0.01791,0.04248 0.938499,2.217404 L 22,15 22,14 20.260891,14 18.660568,9 c -0.424205,1.595812 -0.851036,3.190921 -1.275239,4.784313 z"
     id="path55"
     inkscape:connector-curvature="0"
     sodipodi:nodetypes="cccccccccccccccccc" />
  <path
     inkscape:connector-curvature="0"
     id="path4170"
     style="font-style:normal;font-variant:normal;font-weight:bold;font-stretch:normal;font-size:9.0232296px;line-height:125%;font-family:'Ubuntu Mono';-inkscape-font-specification:'Ubuntu Mono, Bold';text-align:start;letter-spacing:0px;word-spacing:0px;writing-mode:lr-tb;text-anchor:start;fill:#ffffff;fill-opacity:1;stroke:none;stroke-width:1px;stroke-linecap:butt;stroke-linejoin:miter;stroke-opacity:1"
     d="m 10.121076,27.943218 q 0,0.425867 0.02691,0.804417 0.03587,0.369085 0.125561,0.643532 0.09866,0.274448 0.269059,0.435332 0.170404,0.160883 0.457399,0.160883 0.278027,0 0.448431,-0.160883 0.179371,-0.160884 0.269057,-0.435332 0.09866,-0.283912 0.125561,-0.652997 0.03587,-0.369085 0.03587,-0.794952 0,-0.425867 -0.03587,-0.794953 -0.02691,-0.378548 -0.125561,-0.652997 -0.08968,-0.274448 -0.260089,-0.435331 -0.170404,-0.160884 -0.457399,-0.160884 -0.286995,0 -0.457399,0.160884 -0.170403,0.160883 -0.269059,0.444795 -0.08968,0.274448 -0.125561,0.643533 -0.02691,0.369086 -0.02691,0.794953 z m -1.121076,0 q 0,-1.514196 0.5291479,-2.280757 0.5291481,-0.776025 1.4708511,-0.776025 0.977579,0 1.48879,0.776025 Q 13,26.429022 13,27.943218 13,29.457413 12.479821,30.233439 11.959641,31 11.008968,31 10.03139,31 9.5112112,30.233439 9,29.457413 9,27.943218 Z" />
  <path
     inkscape:connector-curvature="0"
     id="path4172"
     style="font-style:normal;font-variant:normal;font-weight:bold;font-stretch:normal;font-size:9.0232296px;line-height:125%;font-family:'Ubuntu Mono';-inkscape-font-specification:'Ubuntu Mono, Bold';text-align:start;letter-spacing:0px;word-spacing:0px;writing-mode:lr-tb;text-anchor:start;fill:#ffffff;fill-opacity:1;stroke:none;stroke-width:1px;stroke-linecap:butt;stroke-linejoin:miter;stroke-opacity:1"
     d="M 15.821053,31 Q 15.568423,30.331179 15.28421,29.487883 15,28.644588 14.74737,27.810986 14.494738,26.96769 14.294737,26.221325 14.094737,25.474959 14,25 l 1.368421,0 q 0.06316,0.465266 0.189474,1.085622 0.126316,0.610662 0.273684,1.26979 0.157895,0.649434 0.326315,1.289176 0.178948,0.630049 0.34737,1.134087 0.168421,-0.494345 0.336842,-1.124394 0.168421,-0.63974 0.315789,-1.289176 0.147369,-0.659127 0.273684,-1.279483 Q 17.557896,25.465266 17.642106,25 L 19,25 q -0.126315,0.581583 -0.315788,1.298869 -0.178948,0.717286 -0.421054,1.512117 -0.231579,0.785136 -0.515789,1.609047 Q 17.463158,30.234249 17.157895,31 l -1.336842,0 z" />
  <path
     inkscape:connector-curvature="0"
     id="path4174"
     style="font-style:normal;font-variant:normal;font-weight:bold;font-stretch:normal;font-size:9.0232296px;line-height:125%;font-family:'Ubuntu Mono';-inkscape-font-specification:'Ubuntu Mono, Bold';text-align:start;letter-spacing:0px;word-spacing:0px;writing-mode:lr-tb;text-anchor:start;fill:#ffffff;fill-opacity:1;stroke:none;stroke-width:1px;stroke-linecap:butt;stroke-linejoin:miter;stroke-opacity:1"
     d="m 20,31 0,-6 4,0 0,0.988692 -3,0 0,1.016962 2,0 0,0.988692 -2,0 L 21,31 Z"
     sodipodi:nodetypes="ccccccccccc" />
</svg>

<svg xmlns="http://www.w3.org/2000/svg" viewBox="0 0 32 32">
 <path d="m 5.336 0 c -0.687 0 -1.336 0.676 -1.336 1.394 l 0 29.21 c 0 0.676 0.687 1.394 1.336 1.394 l 21.327 0 c 0.648 0 1.336 -0.717 1.336 -1.394 l 0.001 -21.606 -9 -9 z" style="fill:#a60ed7;fill-opacity:1"/>
 <path d="m 21 9 7 7 0 -7 z" style="fill:#000;fill-opacity:0.196"/>
 <path d="m 19 0 8.992 9 -7.613 0 c -0.673 0 -1.378 -0.713 -1.378 -1.386 z" style="fill:#fff;fill-opacity:0.392"/>
 <path d="m 4 24 0 6.668 c 0 0.648 0.688 1.332 1.332 1.332 l 21.336 0 c 0.645 0 1.332 -0.684 1.332 -1.332 l 0 -6.668 z" style="fill:#000;fill-opacity:0.196"/>
 <path d="m 15.5 9.158 -2 8.579 l -1.224 -3.737 -2.276 0 l 0 1 1.644 0 1.957 5.994 0.229 0.006 1.98 -8.588 1.578 5.193 c 0.422 -1.607 0.85 -3.215 1.274 -4.822 0.938 2.165 -0.018 0.042 0.938 2.217 l 2.4 0 0 -1 -1.739 0 -1.6 -5 c -0.424 1.596 -0.851 3.191 -1.275 4.784 z" style="fill:#fff;fill-opacity:1;stroke:none;fill-rule:nonzero"/>
 <path d="m 10.121 27.943 q 0 0.426 0.027 0.804 0.036 0.369 0.126 0.644 0.099 0.274 0.269 0.435 0.17 0.161 0.457 0.161 0.278 0 0.448 -0.161 0.179 -0.161 0.269 -0.435 0.099 -0.284 0.126 -0.653 0.036 -0.369 0.036 -0.795 0 -0.426 -0.036 -0.795 -0.027 -0.379 -0.126 -0.653 -0.09 -0.274 -0.26 -0.435 -0.17 -0.161 -0.457 -0.161 -0.287 0 -0.457 0.161 -0.17 0.161 -0.269 0.445 -0.09 0.274 -0.126 0.644 -0.027 0.369 -0.027 0.795 z m -1.121 0 q 0 -1.514 0.529 -2.281 0.529 -0.776 1.471 -0.776 0.978 0 1.489 0.776 q 0.511 0.767 0.511 2.281 0 1.514 -0.52 2.29 -0.52 0.767 -1.471 0.767 -0.978 0 -1.498 -0.767 -0.511 -0.776 -0.511 -2.29" style="fill:#fff;fill-opacity:1;stroke:none"/>
 <path d="m 15.821 31 q -0.253 -0.669 -0.537 -1.512 -0.284 -0.843 -0.537 -1.677 -0.253 -0.843 -0.453 -1.59 -0.2 -0.746 -0.295 -1.221 l 1.368 0 q 0.063 0.465 0.189 1.086 0.126 0.611 0.274 1.27 0.158 0.649 0.326 1.289 0.179 0.63 0.347 1.134 0.168 -0.494 0.337 -1.124 0.168 -0.64 0.316 -1.289 0.147 -0.659 0.274 -1.279 q 0.126 -0.62 0.211 -1.086 l 1.358 0 q -0.126 0.582 -0.316 1.299 -0.179 0.717 -0.421 1.512 -0.232 0.785 -0.516 1.609 q -0.284 0.814 -0.589 1.58 l -1.337 0 z" style="fill:#fff;fill-opacity:1;stroke:none"/>
 <path d="m 20 31 0 -6 4 0 0 0.989 -3 0 0 1.017 2 0 0 0.989 -2 0 l 0 3.01" style="fill:#fff;fill-opacity:1;stroke:none"/>
</svg>
